icons/1_Primary/Atlassian.svg

<svg xmlns="http://www.w3.org/2000/svg" width="1024" height="1024" fill="none">
   <g clip-path="url(#a)">
      <path fill="#728DBE" d="M512 1024c282.77 0 512-229.23 512-512S794.77 0 512 0 0 229.23 0 512s229.23 512 512 512Z"/>
      <path fill="#fff" d="M462.17 714.55a13.634 13.634 0 0 1-12.66 7.82h-164.9a14.154 14.154 0 0 1-12.004-6.731A14.147 14.147 0 0 1 272 701.89l118.37-236.77a13.734 13.734 0 0 1 10.969-7.855 13.742 13.742 0 0 1 12.401 5.315c62.44 66.7 84 178.42 48.43 251.97Zm38.43-467.32a312.31 312.31 0 0 0-18.23 308.32l79.5 159a14.15 14.15 0 0 0 12.66 7.82h164.86a14.15 14.15 0 0 0 12.66-20.48s-221.8-443.66-227.37-454.75a13.364 13.364 0 0 0-19.158-5.432 13.368 13.368 0 0 0-4.912 5.522h-.01Z"/>
   </g>
   <defs>
      <clipPath id="a">
         <path fill="#fff" d="M0 0h1024v1024H0z"/>
      </clipPath>
   </defs>
</svg>

<svg width="1024" height="1024" viewBox="0 0 1024 1024" fill="none" xmlns="http://www.w3.org/2000/svg">
<g clip-path="url(#clip0_2_1524)">
<path d="M512 1024C794.77 1024 1024 794.77 1024 512C1024 229.23 794.77 0 512 0C229.23 0 0 229.23 0 512C0 794.77 229.23 1024 512 1024Z" fill="#728DBE"/>
<path d="M462.17 714.55C461.043 716.94 459.247 718.95 457 720.339C454.753 721.727 452.151 722.433 449.51 722.37H284.61C282.201 722.362 279.835 721.74 277.734 720.562C275.634 719.384 273.868 717.69 272.606 715.639C271.343 713.588 270.625 711.249 270.519 708.843C270.413 706.437 270.922 704.044 272 701.89L390.37 465.12C391.368 462.978 392.902 461.129 394.824 459.753C396.745 458.377 398.989 457.52 401.339 457.265C403.689 457.009 406.064 457.364 408.237 458.296C410.409 459.227 412.304 460.702 413.74 462.58C476.18 529.28 497.74 641 462.17 714.55ZM500.6 247.23C471.094 292.632 453.899 344.926 450.703 398.979C447.507 453.032 458.42 506.987 482.37 555.55L561.87 714.55C563.046 716.901 564.853 718.878 567.089 720.259C569.325 721.64 571.902 722.371 574.53 722.37H739.39C741.802 722.371 744.175 721.755 746.282 720.581C748.39 719.406 750.162 717.713 751.431 715.66C752.699 713.608 753.422 711.266 753.53 708.856C753.639 706.446 753.129 704.048 752.05 701.89C752.05 701.89 530.25 258.23 524.68 247.14C523.577 244.883 521.86 242.982 519.727 241.655C517.593 240.328 515.129 239.629 512.617 239.639C510.104 239.648 507.645 240.365 505.522 241.708C503.398 243.051 501.696 244.964 500.61 247.23H500.6Z" fill="white"/>
</g>
<defs>
<clipPath id="clip0_2_1524">
<rect width="1024" height="1024" fill="white"/>
</clipPath>
</defs>
</svg>
